apps/homepage/src/assets/home/keycap/orange-keycap-long-row.svg

<svg width="893" height="290" viewBox="0 0 893 290" fill="none" xmlns="http://www.w3.org/2000/svg">
<rect width="893" height="290" rx="50" fill="url(#paint0_radial_6834_66507)"/>
<mask id="mask0_6834_66507" style="mask-type:alpha" maskUnits="userSpaceOnUse" x="0" y="0" width="893" height="290">
<rect x="893" y="290" width="893" height="290" rx="50" transform="rotate(-180 893 290)" fill="url(#paint1_radial_6834_66507)"/>
</mask>
<g mask="url(#mask0_6834_66507)">
<g filter="url(#filter0_f_6834_66507)">
<path d="M892.727 289.58L892.727 -1.97788e-05L-1.72476 289.58L892.727 289.58Z" fill="#E95D00"/>
</g>
<g filter="url(#filter1_f_6834_66507)" style="mix-blend-mode:hard-light">
<path d="M778.938 226.234L745.091 226.234C745.091 226.234 786.023 290.204 789.959 290.204L801.144 290.204C810.088 290.204 817.308 290.204 829.316 290.204C835.149 290.204 837.9 289.934 843.485 289.268C850.482 288.434 853.353 288.273 860.015 287.084C869.21 285.443 874.34 283.747 881.269 280.843C887.481 278.239 891.113 276.813 895.437 273.666C899.26 270.883 900.198 269.286 901.734 266.176C903.212 263.187 903.309 261.422 903.309 258.376L903.309 231.852L848.995 196.59L848.995 200.647L843.485 207.512L834.039 212.816L823.019 217.497L805.702 223.426L778.938 226.234Z" fill="url(#paint2_linear_6834_66507)" fill-opacity="0.4"/>
</g>
<g filter="url(#filter2_f_6834_66507)">
<path d="M116.253 45.5596L138.312 79.5728L105.605 82.3813L84.441 88.3102L70.3851 79.5728L58.8412 84.8776L52.1073 91.7427L52.1073 95.7993L-37.7315 58.3535L-37.7315 31.8294C-37.7315 28.7829 -37.6133 27.0183 -35.8075 24.0286C-33.9295 20.9193 -32.7833 19.3217 -28.1116 16.5391C-22.827 13.3916 -18.3879 11.966 -10.796 9.36199C-2.3287 6.45766 3.94083 4.76211 15.1777 3.12105C23.3203 1.93188 26.8285 1.77119 35.3798 0.936784C41.8502 0.305419 45.2078 0.0299044 51.6114 0.00295537C49.6961 -1.24395 47.9638 -2.34329 46.4633 -3.25814C38.7977 -4.77091 31.457 -6.24021 40.5712 -6.24024C41.2725 -6.24024 43.3779 -5.13919 46.4633 -3.25814C54.5963 -1.65313 63.0951 0.000802672 52.6953 0.000746635C52.3241 0.000744736 51.9632 0.00147478 51.6114 0.00295537C72.7691 13.7774 116.253 45.5596 116.253 45.5596Z" fill="url(#paint3_linear_6834_66507)"/>
</g>
</g>
<rect x="42" y="41" width="809" height="209" rx="50" fill="url(#paint4_linear_6834_66507)"/>
<mask id="mask1_6834_66507" style="mask-type:alpha" maskUnits="userSpaceOnUse" x="42" y="41" width="809" height="209">
<rect x="42" y="41" width="809" height="209" rx="50" fill="url(#paint5_linear_6834_66507)"/>
</mask>
<g mask="url(#mask1_6834_66507)">
<g filter="url(#filter3_f_6834_66507)">
<rect x="44.5" y="43.5" width="804" height="204" rx="47.5" stroke="url(#paint6_linear_6834_66507)" stroke-width="5"/>
</g>
</g>
<defs>
<filter id="filter0_f_6834_66507" x="-19.7246" y="-18" width="930.452" height="325.58" filterUnits="userSpaceOnUse" color-interpolation-filters="sRGB">
<feFlood flood-opacity="0" result="BackgroundImageFix"/>
<feBlend mode="normal" in="SourceGraphic" in2="BackgroundImageFix" result="shape"/>
<feGaussianBlur stdDeviation="9" result="effect1_foregroundBlur_6834_66507"/>
</filter>
<filter id="filter1_f_6834_66507" x="735.091" y="186.59" width="178.218" height="113.614" filterUnits="userSpaceOnUse" color-interpolation-filters="sRGB">
<feFlood flood-opacity="0" result="BackgroundImageFix"/>
<feBlend mode="normal" in="SourceGraphic" in2="BackgroundImageFix" result="shape"/>
<feGaussianBlur stdDeviation="5" result="effect1_foregroundBlur_6834_66507"/>
</filter>
<filter id="filter2_f_6834_66507" x="-45.7314" y="-14.2402" width="192.044" height="118.039" filterUnits="userSpaceOnUse" color-interpolation-filters="sRGB">
<feFlood flood-opacity="0" result="BackgroundImageFix"/>
<feBlend mode="normal" in="SourceGraphic" in2="BackgroundImageFix" result="shape"/>
<feGaussianBlur stdDeviation="4" result="effect1_foregroundBlur_6834_66507"/>
</filter>
<filter id="filter3_f_6834_66507" x="32" y="31" width="829" height="229" filterUnits="userSpaceOnUse" color-interpolation-filters="sRGB">
<feFlood flood-opacity="0" result="BackgroundImageFix"/>
<feBlend mode="normal" in="SourceGraphic" in2="BackgroundImageFix" result="shape"/>
<feGaussianBlur stdDeviation="5" result="effect1_foregroundBlur_6834_66507"/>
</filter>
<radialGradient id="paint0_radial_6834_66507" cx="0" cy="0" r="1" gradientUnits="userSpaceOnUse" gradientTransform="translate(446.5 145) rotate(-90) scale(145 446.5)">
<stop stop-color="#FFA726"/>
<stop offset="1" stop-color="#F87D02"/>
</radialGradient>
<radialGradient id="paint1_radial_6834_66507" cx="0" cy="0" r="1" gradientUnits="userSpaceOnUse" gradientTransform="translate(1339.5 435) rotate(-90) scale(145 446.5)">
<stop stop-color="#FFA726"/>
<stop offset="1" stop-color="#F87D02"/>
</radialGradient>
<linearGradient id="paint2_linear_6834_66507" x1="792.32" y1="283.339" x2="815.415" y2="213.619" gradientUnits="userSpaceOnUse">
<stop stop-color="#F87D02"/>
<stop offset="0.466346" stop-color="#FFBE7C"/>
<stop offset="1" stop-color="#F87D02"/>
</linearGradient>
<linearGradient id="paint3_linear_6834_66507" x1="103.148" y1="44.9355" x2="73.0941" y2="102.47" gradientUnits="userSpaceOnUse">
<stop stop-color="#F87D02"/>
<stop offset="0.466346" stop-color="#FFBE7C"/>
<stop offset="1" stop-color="#F87D02"/>
</linearGradient>
<linearGradient id="paint4_linear_6834_66507" x1="943.989" y1="145.5" x2="184.265" y2="-64.5535" gradientUnits="userSpaceOnUse">
<stop stop-color="#FFA726"/>
<stop offset="1" stop-color="#F86902"/>
</linearGradient>
<linearGradient id="paint5_linear_6834_66507" x1="943.988" y1="145.5" x2="184.265" y2="-64.5537" gradientUnits="userSpaceOnUse">
<stop stop-color="#FFA726"/>
<stop offset="1" stop-color="#F86902"/>
</linearGradient>
<linearGradient id="paint6_linear_6834_66507" x1="235.772" y1="79.1707" x2="299.232" y2="352.7" gradientUnits="userSpaceOnUse">
<stop stop-color="white"/>
<stop offset="1" stop-color="#F89202"/>
</linearGradient>
</defs>
</svg>

<svg xmlns="http://www.w3.org/2000/svg" fill="none" viewBox="0 0 893 290"><rect width="893" height="290" fill="url(#a)" rx="50"/><mask id="c" width="893" height="290" x="0" y="0" maskUnits="userSpaceOnUse" style="mask-type:alpha"><rect width="893" height="290" x="893" y="290" fill="url(#b)" rx="50" transform="rotate(-180 893 290)"/></mask><g mask="url(#c)"><g filter="url(#d)"><path fill="#e95d00" d="M892.727 289.58V0L-1.725 289.58z"/></g><g filter="url(#e)" style="mix-blend-mode:hard-light"><path fill="url(#f)" fill-opacity=".4" d="M778.938 226.234h-33.847s40.932 63.97 44.868 63.97h39.357c5.833 0 8.584-.27 14.169-.936 6.997-.834 9.868-.995 16.53-2.184 9.195-1.641 14.325-3.337 21.254-6.241 6.212-2.604 9.844-4.03 14.168-7.177 3.823-2.783 4.761-4.38 6.297-7.49 1.478-2.989 1.575-4.754 1.575-7.8v-26.524l-54.314-35.262v4.057l-5.51 6.865-9.446 5.304-11.02 4.681-17.317 5.929z"/></g><g filter="url(#g)"><path fill="url(#h)" d="m116.253 45.56 22.059 34.013-32.707 2.808-21.164 5.93-14.056-8.738-11.544 5.305-6.734 6.865v4.056L-37.73 58.353V31.83c0-3.046.118-4.81 1.924-7.8 1.878-3.11 3.024-4.707 7.695-7.49 5.285-3.147 9.724-4.573 17.316-7.177 8.467-2.904 14.737-4.6 25.974-6.24 8.142-1.19 11.65-1.35 20.202-2.185C41.85.305 45.208.03 51.61.003a211 211 0 0 0-5.148-3.261C38.798-4.771 31.457-6.24 40.571-6.24c.702 0 2.807 1.1 5.892 2.982C54.596-1.653 63.095 0 52.695 0q-.555 0-1.084.002C72.77 13.777 116.253 45.56 116.253 45.56"/></g></g><rect width="809" height="209" x="42" y="41" fill="url(#i)" rx="50"/><mask id="k" width="809" height="209" x="42" y="41" maskUnits="userSpaceOnUse" style="mask-type:alpha"><rect width="809" height="209" x="42" y="41" fill="url(#j)" rx="50"/></mask><g filter="url(#l)" mask="url(#k)"><rect width="804" height="204" x="44.5" y="43.5" stroke="url(#m)" stroke-width="5" rx="47.5"/></g><defs><linearGradient id="f" x1="792.32" x2="815.415" y1="283.339" y2="213.619" gradientUnits="userSpaceOnUse"><stop stop-color="#f87d02"/><stop offset=".466" stop-color="#ffbe7c"/><stop offset="1" stop-color="#f87d02"/></linearGradient><linearGradient id="h" x1="103.148" x2="73.094" y1="44.935" y2="102.47" gradientUnits="userSpaceOnUse"><stop stop-color="#f87d02"/><stop offset=".466" stop-color="#ffbe7c"/><stop offset="1" stop-color="#f87d02"/></linearGradient><linearGradient id="i" x1="943.989" x2="184.265" y1="145.5" y2="-64.553" gradientUnits="userSpaceOnUse"><stop stop-color="#ffa726"/><stop offset="1" stop-color="#f86902"/></linearGradient><linearGradient id="j" x1="943.988" x2="184.265" y1="145.5" y2="-64.554" gradientUnits="userSpaceOnUse"><stop stop-color="#ffa726"/><stop offset="1" stop-color="#f86902"/></linearGradient><linearGradient id="m" x1="235.772" x2="299.232" y1="79.171" y2="352.7" gradientUnits="userSpaceOnUse"><stop stop-color="#fff"/><stop offset="1" stop-color="#f89202"/></linearGradient><filter id="d" width="930.452" height="325.58" x="-19.725" y="-18" color-interpolation-filters="sRGB" filterUnits="userSpaceOnUse"><feFlood flood-opacity="0" result="BackgroundImageFix"/><feBlend in="SourceGraphic" in2="BackgroundImageFix" result="shape"/><feGaussianBlur result="effect1_foregroundBlur_6834_66507" stdDeviation="9"/></filter><filter id="e" width="178.218" height="113.614" x="735.091" y="186.59" color-interpolation-filters="sRGB" filterUnits="userSpaceOnUse"><feFlood flood-opacity="0" result="BackgroundImageFix"/><feBlend in="SourceGraphic" in2="BackgroundImageFix" result="shape"/><feGaussianBlur result="effect1_foregroundBlur_6834_66507" stdDeviation="5"/></filter><filter id="g" width="192.044" height="118.039" x="-45.731" y="-14.24" color-interpolation-filters="sRGB" filterUnits="userSpaceOnUse"><feFlood flood-opacity="0" result="BackgroundImageFix"/><feBlend in="SourceGraphic" in2="BackgroundImageFix" result="shape"/><feGaussianBlur result="effect1_foregroundBlur_6834_66507" stdDeviation="4"/></filter><filter id="l" width="829" height="229" x="32" y="31" color-interpolation-filters="sRGB" filterUnits="userSpaceOnUse"><feFlood flood-opacity="0" result="BackgroundImageFix"/><feBlend in="SourceGraphic" in2="BackgroundImageFix" result="shape"/><feGaussianBlur result="effect1_foregroundBlur_6834_66507" stdDeviation="5"/></filter><radialGradient id="a" cx="0" cy="0" r="1" gradientTransform="matrix(0 -145 446.5 0 446.5 145)" gradientUnits="userSpaceOnUse"><stop stop-color="#ffa726"/><stop offset="1" stop-color="#f87d02"/></radialGradient><radialGradient id="b" cx="0" cy="0" r="1" gradientTransform="matrix(0 -145 446.5 0 1339.5 435)" gradientUnits="userSpaceOnUse"><stop stop-color="#ffa726"/><stop offset="1" stop-color="#f87d02"/></radialGradient></defs></svg>
